X:1
T:Title
%%score { ( 1 3 ) | ( 2 4 ) }
L:1/8
Q:1/4=104
M:4/4
K:Eb
V:1 treble nm="Grand Piano"
V:3 treble 
V:2 bass 
V:4 bass 
V:1
 [Ec][CE][=B,D][CE] [CB]2 [CA]2 | [_DA]4 [DG]4 | [GB]2 [Ge]2 [GB]2 [G=B]2 | [Ac]6 z2 | %4
w: W.~A.~Post * * * * *||||
 [=Ec][EG][D_G][E=G] [Ec]2 [CB]-[CGB] | A4 c4 | [DB]2 [CDA]2 [B,DG]2 [A,DF]2 | E6 E2 | %8
w: ||||
 F2 G2 [Gc]2 B2 | z2 e4 z2 | z2 [Ge]4 z2 | z4 e2 _d2 | cEDE A2 c2 | [Fe]2 [F_d]2 F4 | FEAG c2 B2 | %15
w: |||||||
 [CA]6 z2 | [Ec][CE][=B,D][CE] [CA]4 |[M:7/8] [_DB]2 [DF]2 [FB]3 |[M:1/8] [FA] | %19
w: ||||
[M:4/4] [EG]2 [GB]2 [Ge][G_d][GB]G | z4 e2 _d2 | z4 z2 c2 | [Fe]2 [F_d]2 F4 | FEAG c2 B2 | %24
w: |||||
[M:8/4] [CA]8 z8 |] %25
w: |
V:2
 [A,,A,][A,,A,][A,,A,][A,,A,] [A,,A,]2 [A,,A,]2 | [E,B,]4 [E,B,]4 | [E,_D]2 [E,B,]2 [E,E]2 [E,E]2 | %3
 [A,E]6 z2 | [C,G,][C,C][C,C][C,C] [C,G,]2 D,=E, | [F,CF]4 [F,A,F]4 | [B,,A,]2 B,,2 B,,2 B,,2 | %7
 [E,G,]6 [E,G,]2 | [E,A,E]2 [E,B,E]2 [E,_D]2 [E,DE]2 | [A,CE]2 [CE]4 [A,CE]2 | %10
 [B,_DE]2 D4 [B,DE]2 | [A,CE]2 [E,A,E]2 .[A,CE]2 .[F,B,E]2 | [A,E][A,C][A,=B,][A,C] [A,C]2 [A,E]2 | %13
 [_D,A,]2 [D,A,]2 [D,A,_D]4 | [E,G,_D][E,G,D][E,B,D][E,B,D] [E,G,D]2 [E,G,D]2 | [A,,A,]6 z2 | %16
 [A,,A,][A,,A,][A,,A,][A,,A,] [A,,A,]4 |[M:7/8] [_D,F,]2 [D,A,]2 [D,_D]3 |[M:1/8] [_D,_D] | %19
[M:4/4] [E,_D]2 [E,D]2 [E,B,][E,B,][E,D][E,B,E] | [A,CE][A,C][A,CE][A,E] .[A,CE]2 .[F,B,E]2 | %21
 [A,,A,][A,,A,][A,,A,][A,,A,] [A,,A,]2 .[A,E]2 | [_D,A,]2 [D,A,]2 [D,A,_D]4 | %23
 [E,G,_D][E,G,D][E,B,D][E,B,D] [E,G,D]2 [E,G,D]2 |[M:8/4] [A,,A,]8 z8 |] %25
V:3
 x8 | x8 | x8 | x8 | z4 z2 .F2 | x8 | x8 | x8 | x8 | A2 z2 A,2 A2 | G2 z2 B,2 G2 | %11
 A2 c2 z E, z G, | x8 | x8 | x8 | x8 | x8 |[M:7/8] x7 |[M:1/8] x |[M:4/4] x8 | AEAc z E, z G, | %21
 [Ec][CE][=B,D][CE] [CA]2 z _G | x8 | x8 |[M:8/4] x16 |] %25
V:4
 x8 | x8 | x8 | x8 | x8 | x8 | x8 | x8 | x8 | z2 E,2 z4 | z2 E,2 z4 | x8 | x8 | x8 | x8 | x8 | x8 | %17
[M:7/8] x7 |[M:1/8] x |[M:4/4] x8 | x8 | x8 | x8 | x8 |[M:8/4] x16 |] %25

